X:202
T: We All Take a Sup in Our Turn
N: O'Farrell's Pocket Companion v.3 (Sky ed. p.103)
N: "Irish"
M: 6/8
R: jig
L: 1/8
Q: 320
K: D
Add dcd| e2c A2A| Aee e>fg| a2f d2 a/g/|
f>ge agf| b2g e2 g/f/| e>fg gfe| a2f d2A|
Add cee| fdd gee| fga gfe| d3 z2A|
Add cee| fdd gee| fga gfe| d6 :|
